packages/icons/src/call-left-slash.svg

<svg width="24" height="24" viewBox="0 0 24 24" fill="none" xmlns="http://www.w3.org/2000/svg">
<path fill-rule="evenodd" clip-rule="evenodd" d="M3.06484 4.69648L19.5648 21.6965L21 20.3035L4.5 3.30352L3.06484 4.69648Z" fill="black"/>
<path d="M5.30242 14.82C4.19242 15.18 3.00242 15.38 1.77242 15.38C1.23242 15.38 0.782419 15.83 0.782419 16.37V19.82C0.782419 20.37 1.06242 21 1.77242 21C5.78069 21 9.4998 19.5598 12.4318 17.1748L10.615 15.3089C9.75037 15.9959 8.82641 16.5797 7.88242 17.03L6.31242 15.06C6.04242 14.79 5.65242 14.7 5.30242 14.82Z" fill="black"/>
<path d="M12.0996 13.9668C13.1884 12.8491 14.1151 11.5659 14.7724 10.2L12.8224 8.54C12.5524 8.26 12.4724 7.87 12.5824 7.52C12.9524 6.41 13.1424 5.22 13.1424 3.99C13.1424 3.45 13.5924 3 14.1324 3H17.5924C18.1324 3 18.7824 3.24 18.7824 3.99C18.7824 8.55857 16.913 12.7475 13.9091 15.8252L12.0996 13.9668Z" fill="black"/>
</svg>

<svg xmlns="http://www.w3.org/2000/svg" width="24" height="24" fill="none" viewBox="0 0 24 24">
  <path fill="#000" fill-rule="evenodd" d="m3.065 4.696 16.5 17L21 20.303l-16.5-17-1.435 1.393Z" clip-rule="evenodd"/>
  <path fill="#000" d="M5.302 14.82c-1.11.36-2.3.56-3.53.56-.54 0-.99.45-.99.99v3.45c0 .55.28 1.18.99 1.18 4.009 0 7.728-1.44 10.66-3.825l-1.817-1.866a14.374 14.374 0 0 1-2.733 1.721l-1.57-1.97a.977.977 0 0 0-1.01-.24Zm6.798-.853c1.088-1.118 2.015-2.401 2.672-3.767l-1.95-1.66a1.02 1.02 0 0 1-.24-1.02c.37-1.11.56-2.3.56-3.53 0-.54.45-.99.99-.99h3.46c.54 0 1.19.24 1.19.99 0 4.569-1.869 8.758-4.873 11.835l-1.81-1.858Z"/>
</svg>
